X: 11021
T: DAVE LANGFORD'S REEL
C: Bob McQuillen 30 June 2000
B: Bob's Note Book 11 #21
R: reel
Z: 2020 John Chambers <jc:trillian.mit.edu>
M: C
L: 1/8
K: D
dB \
| AFDE FD fa | gfef dBef | g2fd edBd | efdB AFdB |
| AFDE FD fa | gfed B2ef | geag fdAF | Addc d2  :|
|: fg \
| afdB Adef | gfed cBAG | FAdA Bdge | cea^g a2fg |
| afdB Adfa | gded Bdeg | fdAf gdBg | fdec  d2  :|
%%begintext align
%% You've really
%% missed out if you've never danced to Dave's
%% great fiddling. He's from Arlington, MA, and
%% every so often, I'm lucky enough to get to play
%% with him. It's always such a pleasure, Dave -
%% hope it happens again real soon!
%%endtext

%%sep 1 1 500

%%sep 1 1 500

